X:1
T:O piccola betlemme
T:O piccola betlemme 
L:1/8
M:2/2
K:G
V:1 treble nm="Contralto" snm="C."
V:1
 D2 | D2 D2 C2 D2 | (=F2 E2) C2 E2 | D2 D2 D2 D2 | D6 z2 | z2 z2 z2 D2 | D2 G2 ^G2 G2 | %7
 (A2 E2) C2 E2 | D2 D2 F2 F2 | G6 z2 | z2 z2 z2 G2 | G2 G2 F2 E2 | ^D4 D2 D2 | E2 F2 G2 E2 | %14
 F6 z2 | z6 G2 | D2 D2 ^C2 D2 | (^F2 E2) C2 EF | G2 ^C2 D3 =C | B,6 z2 |] %20

